src/App/SitePart/RulesPage/img/CellTypes.svg

<svg width="400" height="240" fill="none" xmlns="http://www.w3.org/2000/svg"><path fill="#FFF3E0" d="M0 0h400v240H0z"/><path d="M95.334 145.65V156h-2.28v-8.7h-3.63v8.7h-2.28v-10.35h8.19zm10.536 8.565l.09 1.68c-.93.1-2.53.15-4.8.15-.69 0-1.24-.185-1.65-.555-.41-.38-.615-.89-.615-1.53v-6.27c0-.64.205-1.145.615-1.515.42-.38.97-.57 1.65-.57 2.27 0 3.87.05 4.8.15l-.09 1.695h-3.99c-.25 0-.43.06-.54.18-.11.12-.165.315-.165.585v1.575h4.125v1.65h-4.125v1.995c0 .28.055.48.165.6.11.12.29.18.54.18h3.99zm10.28-.15l.195 1.695c-.9.28-2.005.42-3.315.42-1.6 0-2.725-.4-3.375-1.2-.65-.8-.975-2.185-.975-4.155 0-1.97.325-3.355.975-4.155.65-.8 1.775-1.2 3.375-1.2 1.16 0 2.195.115 3.105.345l-.195 1.71c-.81-.05-1.78-.075-2.91-.075-.75 0-1.265.24-1.545.72-.27.47-.405 1.355-.405 2.655 0 1.3.135 2.19.405 2.67.28.47.795.705 1.545.705 1.39 0 2.43-.045 3.12-.135zm3.632-7.455c.65-.77 1.805-1.155 3.465-1.155s2.815.385 3.465 1.155c.65.76.975 2.165.975 4.215s-.325 3.46-.975 4.23c-.65.76-1.805 1.14-3.465 1.14s-2.815-.38-3.465-1.14c-.64-.77-.96-2.18-.96-4.23 0-2.05.32-3.455.96-4.215zm5.055 1.425c-.28-.49-.81-.735-1.59-.735s-1.315.245-1.605.735c-.28.49-.42 1.42-.42 2.79s.14 2.3.42 2.79c.29.49.825.735 1.605.735s1.31-.245 1.59-.735c.29-.49.435-1.42.435-2.79s-.145-2.3-.435-2.79zm10.764 2.535v.06c.19.03.365.065.525.105.16.03.31.085.45.165l.39.21c.11.06.22.17.33.33l.285.36c.08.09.17.255.27.495.11.24.195.43.255.57.06.13.145.365.255.705.12.34.21.605.27.795.06.18.16.49.3.93.1.31.175.545.225.705h-2.385c-.56-1.83-.94-2.95-1.14-3.36-.31-.63-.7-1.005-1.17-1.125a2.302 2.302 0 0 0-.615-.075h-.735c.08.37.12.7.12.99V156h-2.28v-10.35h2.28v2.925c0 .39-.04.8-.12 1.23h.705c.71 0 1.22-.27 1.53-.81.32-.54.71-1.605 1.17-3.195l.045-.15h2.325c-.56 1.76-.915 2.805-1.065 3.135-.35.78-.79 1.295-1.32 1.545-.25.11-.55.19-.9.24zM170.917 149.85h1.575c1.43 0 2.425.23 2.985.69.56.45.84 1.27.84 2.46 0 .67-.075 1.215-.225 1.635-.15.42-.4.74-.75.96-.35.21-.74.35-1.17.42-.43.08-.995.12-1.695.12-1.44 0-2.705-.045-3.795-.135h-.06v-10.35c1.12-.07 2.295-.105 3.525-.105 1 0 2.175.035 3.525.105l-.18 1.755h-4.575v2.445zm0 4.53h1.575c.63 0 1.04-.095 1.23-.285.2-.19.3-.585.3-1.185 0-.59-.1-.985-.3-1.185-.19-.21-.6-.315-1.23-.315h-1.575v2.97zm9.092-7.77c.65-.77 1.805-1.155 3.465-1.155s2.815.385 3.465 1.155c.65.76.975 2.165.975 4.215s-.325 3.46-.975 4.23c-.65.76-1.805 1.14-3.465 1.14s-2.815-.38-3.465-1.14c-.64-.77-.96-2.18-.96-4.23 0-2.05.32-3.455.96-4.215zm5.055 1.425c-.28-.49-.81-.735-1.59-.735s-1.315.245-1.605.735c-.28.49-.42 1.42-.42 2.79s.14 2.3.42 2.79c.29.49.825.735 1.605.735s1.31-.245 1.59-.735c.29-.49.435-1.42.435-2.79s-.145-2.3-.435-2.79zm14.007-2.385V156h-2.295v-8.7h-1.32c-.59 0-.905.29-.945.87-.13 1.55-.255 2.73-.375 3.54-.11.81-.28 1.505-.51 2.085-.61 1.7-1.755 2.45-3.435 2.25l-.165-1.77c.39-.07.7-.185.93-.345.24-.16.425-.41.555-.75.2-.53.355-1.17.465-1.92.11-.76.225-1.88.345-3.36.11-1.5.92-2.25 2.43-2.25h4.32zm4.226.96c.65-.77 1.805-1.155 3.465-1.155s2.815.385 3.465 1.155c.65.76.975 2.165.975 4.215s-.325 3.46-.975 4.23c-.65.76-1.805 1.14-3.465 1.14s-2.815-.38-3.465-1.14c-.64-.77-.96-2.18-.96-4.23 0-2.05.32-3.455.96-4.215zm5.055 1.425c-.28-.49-.81-.735-1.59-.735s-1.315.245-1.605.735c-.28.49-.42 1.42-.42 2.79s.14 2.3.42 2.79c.29.49.825.735 1.605.735s1.31-.245 1.59-.735c.29-.49.435-1.42.435-2.79s-.145-2.3-.435-2.79zm13.676-.525h-3.09V156h-2.295v-8.49h-3.09v-1.86h8.475v1.86zm3.326-.9c.65-.77 1.805-1.155 3.465-1.155s2.815.385 3.465 1.155c.65.76.975 2.165.975 4.215s-.325 3.46-.975 4.23c-.65.76-1.805 1.14-3.465 1.14s-2.815-.38-3.465-1.14c-.64-.77-.96-2.18-.96-4.23 0-2.05.32-3.455.96-4.215zm5.055 1.425c-.28-.49-.81-.735-1.59-.735s-1.315.245-1.605.735c-.28.49-.42 1.42-.42 2.79s.14 2.3.42 2.79c.29.49.825.735 1.605.735s1.31-.245 1.59-.735c.29-.49.435-1.42.435-2.79s-.145-2.3-.435-2.79zM270.154 150.6v.06c.77.07 1.315.335 1.635.795.33.45.495 1.105.495 1.965 0 1.04-.265 1.75-.795 2.13-.53.38-1.43.57-2.7.57-1.91 0-3.37-.04-4.38-.12v-10.35c.9-.08 2.2-.12 3.9-.12 1.37 0 2.32.19 2.85.57.53.37.795 1.08.795 2.13 0 .75-.14 1.32-.42 1.71-.28.38-.74.6-1.38.66zm-3.51-.72h1.68c.55 0 .925-.09 1.125-.27.21-.18.315-.535.315-1.065 0-.52-.11-.865-.33-1.035-.21-.17-.625-.255-1.245-.255l-1.545-.015v2.64zm0 4.515h1.74c.64 0 1.07-.09 1.29-.27.22-.19.33-.57.33-1.14 0-.62-.115-1.035-.345-1.245-.23-.22-.67-.335-1.32-.345h-1.695v3zm9.445-7.785c.65-.77 1.805-1.155 3.465-1.155s2.815.385 3.465 1.155c.65.76.975 2.165.975 4.215s-.325 3.46-.975 4.23c-.65.76-1.805 1.14-3.465 1.14s-2.815-.38-3.465-1.14c-.64-.77-.96-2.18-.96-4.23 0-2.05.32-3.455.96-4.215zm5.055 1.425c-.28-.49-.81-.735-1.59-.735s-1.315.245-1.605.735c-.28.49-.42 1.42-.42 2.79s.14 2.3.42 2.79c.29.49.825.735 1.605.735s1.31-.245 1.59-.735c.29-.49.435-1.42.435-2.79s-.145-2.3-.435-2.79zm13.787 10.23l-.18-2.265h-6.855l-.18 2.265h-1.62v-3.915h1.095c.71-1.77 1.16-3.95 1.35-6.54.05-.65.29-1.17.72-1.56.43-.4.995-.6 1.695-.6h4.245v8.7h1.35v3.915h-1.62zm-2.01-3.915v-7.05h-1.335c-.3 0-.52.07-.66.21-.13.13-.205.355-.225.675-.12 1.45-.28 2.64-.48 3.57-.2.93-.495 1.795-.885 2.595h3.585zm12.139-1.065h-3.555l-.75 2.715h-2.34l2.985-9.75a.716.716 0 0 1 .285-.435.84.84 0 0 1 .51-.165h2.16c.43 0 .695.2.795.6l2.985 9.75h-2.325l-.75-2.715zm-.495-1.77l-.87-3.165c-.12-.5-.19-.825-.21-.975h-.405a21.186 21.186 0 0 1-.225.975l-.87 3.165h2.58z" fill="#81D2C7"/><path fill="url(#paint0_radial)" d="M262 71h50v50h-50z"/><path fill-rule="evenodd" clip-rule="evenodd" d="M275.106 86.364a6 6 0 0 0-8.485 0l-2.121-2.121a9 9 0 0 1 12.728 0L281.47 80l-4.242 4.243a6 6 0 0 0 8.485 0l2.121 2.121a9 9 0 0 1-12.728 0l-4.242 4.242 4.242-4.242zm21.214 0l2.121-2.121a6 6 0 0 0 8.485 0L302.684 80l6.364 6.364a9 9 0 0 1-12.728 0zm2.121-2.121a9 9 0 0 0-12.728 0l6.364 6.364-4.242-4.243a6 6 0 0 1 8.485 0l2.121-2.121zM309.048 96.864a9 9 0 0 1-12.728 0l2.121-2.121a6 6 0 0 0 8.485 0l-4.242-4.243 6.364 6.364zm-33.942 0a6 6 0 0 0-8.485 0l-2.121-2.121a9 9 0 0 1 12.728 0l4.242-4.243-4.242 4.243a6 6 0 0 0 8.485 0l2.121 2.121a9 9 0 0 1-12.728 0l-4.242 4.242 4.242-4.242zm23.335-2.121a9 9 0 0 0-12.728 0l6.364 6.363-4.242-4.242a6 6 0 0 1 8.485 0l2.121-2.121zM275.106 107.364a6 6 0 0 0-8.485 0l-2.121-2.121a9 9 0 0 1 12.728-.001L281.47 101l-4.242 4.242v.001a6 6 0 0 0 8.485 0l2.121 2.121a9 9 0 0 1-12.728 0l-4.242 4.242 4.242-4.242zm21.214 0l2.121-2.121a6 6 0 0 0 8.485 0L302.684 101l6.364 6.364a9 9 0 0 1-12.728 0zm2.121-2.121a9 9 0 0 0-12.728 0l6.364 6.363-4.242-4.242a6 6 0 0 1 8.485 0l2.121-2.121z" fill="#E8FEFB"/><path fill="#FED766" d="M175 71h50v50h-50z"/><mask id="a" maskUnits="userSpaceOnUse" x="175" y="71" width="50" height="50"><path fill="#C4C4C4" d="M175 71h50v50h-50z"/></mask><g mask="url(#a)" fill="#81D2C7"><path d="M141 101.211l70.71-70.71 3.536 3.535-70.71 70.71zM148.071 108.282l70.71-70.71 3.536 3.535-70.71 70.71zM155.142 115.353l70.71-70.71 3.536 3.535-70.71 70.71zM162.213 122.424l70.71-70.71 3.536 3.535-70.71 70.71zM169.284 129.495l70.71-70.71 3.536 3.535-70.71 70.71zM176.355 136.566l70.71-70.71 3.536 3.535-70.71 70.71zM183.426 143.637l70.71-70.71 3.536 3.535-70.71 70.71zM190.498 150.708l70.71-70.71 3.536 3.535-70.71 70.71z"/></g><path fill="url(#paint1_radial)" d="M89 71h50v50H89z"/><path d="M97.333 71L89 80.09v3.41l8.333-9.09 8.334 9.09L114 74.41l8.333 9.09 8.334-9.09L139 83.5v-3.41L130.667 71l-8.334 9.09L114 71l-8.333 9.09L97.333 71zM97.333 83.5L89 92.59V96l8.333-9.09 8.334 9.09L114 86.91l8.333 9.09 8.334-9.09L139 96v-3.41l-8.333-9.09-8.334 9.09L114 83.5l-8.333 9.09-8.334-9.09zM97.333 96L89 105.091v3.409l8.333-9.09 8.334 9.09L114 99.41l8.333 9.09 8.334-9.09L139 108.5v-3.409L130.667 96l-8.334 9.091L114 96l-8.333 9.091L97.333 96zM97.333 108.5L89 117.591V121l8.333-9.091 8.334 9.091 8.333-9.091 8.333 9.091 8.334-9.091L139 121v-3.409l-8.333-9.091-8.334 9.091L114 108.5l-8.333 9.091-8.334-9.091z" fill="#EFA00B" fill-opacity=".1"/><defs><radialGradient id="paint0_radial" cx="0" cy="0" r="1" gradientUnits="userSpaceOnUse" gradientTransform="rotate(90 108 179) scale(151.25)"><stop stop-color="#EBFFFC"/><stop offset="1" stop-color="#81D2C7"/></radialGradient><radialGradient id="paint1_radial" cx="0" cy="0" r="1" gradientUnits="userSpaceOnUse" gradientTransform="rotate(135 72.65 56.892) scale(106.42)"><stop stop-color="#FED766"/><stop offset="1" stop-color="#FFFD98"/></radialGradient></defs></svg>

<svg width="400" height="240" viewBox="0 0 400 240" fill="none" xmlns="http://www.w3.org/2000/svg">
<rect width="400" height="240" fill="#FFF3E0"/>
<path d="M95.3335 145.65V156H93.0535V147.3H89.4235V156H87.1435V145.65H95.3335ZM105.87 154.215L105.96 155.895C105.03 155.995 103.43 156.045 101.16 156.045C100.47 156.045 99.9199 155.86 99.5099 155.49C99.0999 155.11 98.8949 154.6 98.8949 153.96V147.69C98.8949 147.05 99.0999 146.545 99.5099 146.175C99.9299 145.795 100.48 145.605 101.16 145.605C103.43 145.605 105.03 145.655 105.96 145.755L105.87 147.45H101.88C101.63 147.45 101.45 147.51 101.34 147.63C101.23 147.75 101.175 147.945 101.175 148.215V149.79H105.3V151.44H101.175V153.435C101.175 153.715 101.23 153.915 101.34 154.035C101.45 154.155 101.63 154.215 101.88 154.215H105.87ZM116.15 154.065L116.345 155.76C115.445 156.04 114.34 156.18 113.03 156.18C111.43 156.18 110.305 155.78 109.655 154.98C109.005 154.18 108.68 152.795 108.68 150.825C108.68 148.855 109.005 147.47 109.655 146.67C110.305 145.87 111.43 145.47 113.03 145.47C114.19 145.47 115.225 145.585 116.135 145.815L115.94 147.525C115.13 147.475 114.16 147.45 113.03 147.45C112.28 147.45 111.765 147.69 111.485 148.17C111.215 148.64 111.08 149.525 111.08 150.825C111.08 152.125 111.215 153.015 111.485 153.495C111.765 153.965 112.28 154.2 113.03 154.2C114.42 154.2 115.46 154.155 116.15 154.065ZM119.782 146.61C120.432 145.84 121.587 145.455 123.247 145.455C124.907 145.455 126.062 145.84 126.712 146.61C127.362 147.37 127.687 148.775 127.687 150.825C127.687 152.875 127.362 154.285 126.712 155.055C126.062 155.815 124.907 156.195 123.247 156.195C121.587 156.195 120.432 155.815 119.782 155.055C119.142 154.285 118.822 152.875 118.822 150.825C118.822 148.775 119.142 147.37 119.782 146.61ZM124.837 148.035C124.557 147.545 124.027 147.3 123.247 147.3C122.467 147.3 121.932 147.545 121.642 148.035C121.362 148.525 121.222 149.455 121.222 150.825C121.222 152.195 121.362 153.125 121.642 153.615C121.932 154.105 122.467 154.35 123.247 154.35C124.027 154.35 124.557 154.105 124.837 153.615C125.127 153.125 125.272 152.195 125.272 150.825C125.272 149.455 125.127 148.525 124.837 148.035ZM135.601 150.57V150.63C135.791 150.66 135.966 150.695 136.126 150.735C136.286 150.765 136.436 150.82 136.576 150.9C136.726 150.98 136.856 151.05 136.966 151.11C137.076 151.17 137.186 151.28 137.296 151.44C137.416 151.59 137.511 151.71 137.581 151.8C137.661 151.89 137.751 152.055 137.851 152.295C137.961 152.535 138.046 152.725 138.106 152.865C138.166 152.995 138.251 153.23 138.361 153.57C138.481 153.91 138.571 154.175 138.631 154.365C138.691 154.545 138.791 154.855 138.931 155.295C139.031 155.605 139.106 155.84 139.156 156H136.771C136.211 154.17 135.831 153.05 135.631 152.64C135.321 152.01 134.931 151.635 134.461 151.515C134.281 151.465 134.076 151.44 133.846 151.44H133.111C133.191 151.81 133.231 152.14 133.231 152.43V156H130.951V145.65H133.231V148.575C133.231 148.965 133.191 149.375 133.111 149.805H133.816C134.526 149.805 135.036 149.535 135.346 148.995C135.666 148.455 136.056 147.39 136.516 145.8C136.536 145.73 136.551 145.68 136.561 145.65H138.886C138.326 147.41 137.971 148.455 137.821 148.785C137.471 149.565 137.031 150.08 136.501 150.33C136.251 150.44 135.951 150.52 135.601 150.57Z" fill="#81D2C7"/>
<path d="M170.917 149.85H172.492C173.922 149.85 174.917 150.08 175.477 150.54C176.037 150.99 176.317 151.81 176.317 153C176.317 153.67 176.242 154.215 176.092 154.635C175.942 155.055 175.692 155.375 175.342 155.595C174.992 155.805 174.602 155.945 174.172 156.015C173.742 156.095 173.177 156.135 172.477 156.135C171.037 156.135 169.772 156.09 168.682 156H168.622V145.65C169.742 145.58 170.917 145.545 172.147 145.545C173.147 145.545 174.322 145.58 175.672 145.65L175.492 147.405H170.917V149.85ZM170.917 154.38H172.492C173.122 154.38 173.532 154.285 173.722 154.095C173.922 153.905 174.022 153.51 174.022 152.91C174.022 152.32 173.922 151.925 173.722 151.725C173.532 151.515 173.122 151.41 172.492 151.41H170.917V154.38ZM180.009 146.61C180.659 145.84 181.814 145.455 183.474 145.455C185.134 145.455 186.289 145.84 186.939 146.61C187.589 147.37 187.914 148.775 187.914 150.825C187.914 152.875 187.589 154.285 186.939 155.055C186.289 155.815 185.134 156.195 183.474 156.195C181.814 156.195 180.659 155.815 180.009 155.055C179.369 154.285 179.049 152.875 179.049 150.825C179.049 148.775 179.369 147.37 180.009 146.61ZM185.064 148.035C184.784 147.545 184.254 147.3 183.474 147.3C182.694 147.3 182.159 147.545 181.869 148.035C181.589 148.525 181.449 149.455 181.449 150.825C181.449 152.195 181.589 153.125 181.869 153.615C182.159 154.105 182.694 154.35 183.474 154.35C184.254 154.35 184.784 154.105 185.064 153.615C185.354 153.125 185.499 152.195 185.499 150.825C185.499 149.455 185.354 148.525 185.064 148.035ZM199.071 145.65V156H196.776V147.3H195.456C194.866 147.3 194.551 147.59 194.511 148.17C194.381 149.72 194.256 150.9 194.136 151.71C194.026 152.52 193.856 153.215 193.626 153.795C193.016 155.495 191.871 156.245 190.191 156.045L190.026 154.275C190.416 154.205 190.726 154.09 190.956 153.93C191.196 153.77 191.381 153.52 191.511 153.18C191.711 152.65 191.866 152.01 191.976 151.26C192.086 150.5 192.201 149.38 192.321 147.9C192.431 146.4 193.241 145.65 194.751 145.65H199.071ZM203.297 146.61C203.947 145.84 205.102 145.455 206.762 145.455C208.422 145.455 209.577 145.84 210.227 146.61C210.877 147.37 211.202 148.775 211.202 150.825C211.202 152.875 210.877 154.285 210.227 155.055C209.577 155.815 208.422 156.195 206.762 156.195C205.102 156.195 203.947 155.815 203.297 155.055C202.657 154.285 202.337 152.875 202.337 150.825C202.337 148.775 202.657 147.37 203.297 146.61ZM208.352 148.035C208.072 147.545 207.542 147.3 206.762 147.3C205.982 147.3 205.447 147.545 205.157 148.035C204.877 148.525 204.737 149.455 204.737 150.825C204.737 152.195 204.877 153.125 205.157 153.615C205.447 154.105 205.982 154.35 206.762 154.35C207.542 154.35 208.072 154.105 208.352 153.615C208.642 153.125 208.787 152.195 208.787 150.825C208.787 149.455 208.642 148.525 208.352 148.035ZM222.028 147.51H218.938V156H216.643V147.51H213.553V145.65H222.028V147.51ZM225.354 146.61C226.004 145.84 227.159 145.455 228.819 145.455C230.479 145.455 231.634 145.84 232.284 146.61C232.934 147.37 233.259 148.775 233.259 150.825C233.259 152.875 232.934 154.285 232.284 155.055C231.634 155.815 230.479 156.195 228.819 156.195C227.159 156.195 226.004 155.815 225.354 155.055C224.714 154.285 224.394 152.875 224.394 150.825C224.394 148.775 224.714 147.37 225.354 146.61ZM230.409 148.035C230.129 147.545 229.599 147.3 228.819 147.3C228.039 147.3 227.504 147.545 227.214 148.035C226.934 148.525 226.794 149.455 226.794 150.825C226.794 152.195 226.934 153.125 227.214 153.615C227.504 154.105 228.039 154.35 228.819 154.35C229.599 154.35 230.129 154.105 230.409 153.615C230.699 153.125 230.844 152.195 230.844 150.825C230.844 149.455 230.699 148.525 230.409 148.035Z" fill="#81D2C7"/>
<path d="M270.154 150.6V150.66C270.924 150.73 271.469 150.995 271.789 151.455C272.119 151.905 272.284 152.56 272.284 153.42C272.284 154.46 272.019 155.17 271.489 155.55C270.959 155.93 270.059 156.12 268.789 156.12C266.879 156.12 265.419 156.08 264.409 156V145.65C265.309 145.57 266.609 145.53 268.309 145.53C269.679 145.53 270.629 145.72 271.159 146.1C271.689 146.47 271.954 147.18 271.954 148.23C271.954 148.98 271.814 149.55 271.534 149.94C271.254 150.32 270.794 150.54 270.154 150.6ZM266.644 149.88H268.324C268.874 149.88 269.249 149.79 269.449 149.61C269.659 149.43 269.764 149.075 269.764 148.545C269.764 148.025 269.654 147.68 269.434 147.51C269.224 147.34 268.809 147.255 268.189 147.255L266.644 147.24V149.88ZM266.644 154.395H268.384C269.024 154.395 269.454 154.305 269.674 154.125C269.894 153.935 270.004 153.555 270.004 152.985C270.004 152.365 269.889 151.95 269.659 151.74C269.429 151.52 268.989 151.405 268.339 151.395H266.644V154.395ZM276.089 146.61C276.739 145.84 277.894 145.455 279.554 145.455C281.214 145.455 282.369 145.84 283.019 146.61C283.669 147.37 283.994 148.775 283.994 150.825C283.994 152.875 283.669 154.285 283.019 155.055C282.369 155.815 281.214 156.195 279.554 156.195C277.894 156.195 276.739 155.815 276.089 155.055C275.449 154.285 275.129 152.875 275.129 150.825C275.129 148.775 275.449 147.37 276.089 146.61ZM281.144 148.035C280.864 147.545 280.334 147.3 279.554 147.3C278.774 147.3 278.239 147.545 277.949 148.035C277.669 148.525 277.529 149.455 277.529 150.825C277.529 152.195 277.669 153.125 277.949 153.615C278.239 154.105 278.774 154.35 279.554 154.35C280.334 154.35 280.864 154.105 281.144 153.615C281.434 153.125 281.579 152.195 281.579 150.825C281.579 149.455 281.434 148.525 281.144 148.035ZM294.931 158.265L294.751 156H287.896L287.716 158.265H286.096V154.35H287.191C287.901 152.58 288.351 150.4 288.541 147.81C288.591 147.16 288.831 146.64 289.261 146.25C289.691 145.85 290.256 145.65 290.956 145.65H295.201V154.35H296.551V158.265H294.931ZM292.921 154.35V147.3H291.586C291.286 147.3 291.066 147.37 290.926 147.51C290.796 147.64 290.721 147.865 290.701 148.185C290.581 149.635 290.421 150.825 290.221 151.755C290.021 152.685 289.726 153.55 289.336 154.35H292.921ZM305.06 153.285H301.505L300.755 156H298.415L301.4 146.25C301.44 146.07 301.535 145.925 301.685 145.815C301.835 145.705 302.005 145.65 302.195 145.65H304.355C304.785 145.65 305.05 145.85 305.15 146.25L308.135 156H305.81L305.06 153.285ZM304.565 151.515L303.695 148.35C303.575 147.85 303.505 147.525 303.485 147.375H303.08C303.06 147.475 303.025 147.635 302.975 147.855C302.925 148.075 302.885 148.24 302.855 148.35L301.985 151.515H304.565Z" fill="#81D2C7"/>
<rect x="262" y="71" width="50" height="50" fill="url(#paint0_radial)"/>
<path fill-rule="evenodd" clip-rule="evenodd" d="M275.106 86.364L275.106 86.364L275.106 86.3639C272.763 84.0209 268.964 84.0208 266.621 86.3638L264.5 84.2425C268.015 80.7278 273.713 80.7278 277.228 84.2424L281.47 80L281.47 80L277.228 84.2425L277.228 84.2425L277.228 84.2425C279.571 86.5856 283.37 86.5856 285.713 84.2427L287.834 86.364C284.32 89.8787 278.621 89.8787 275.106 86.364L270.864 90.6065L270.864 90.6064L275.106 86.364ZM296.32 86.364L298.441 84.2427C300.785 86.5856 304.583 86.5856 306.926 84.2425L302.684 80L302.684 80L309.048 86.364C305.533 89.8787 299.835 89.8787 296.32 86.364ZM298.441 84.2425C294.926 80.7278 289.228 80.7278 285.713 84.2425L292.077 90.6065L292.077 90.6064L287.835 86.364C290.178 84.0209 293.977 84.0208 296.32 86.3638L298.441 84.2425Z" fill="#E8FEFB"/>
<path fill-rule="evenodd" clip-rule="evenodd" d="M309.048 96.864C305.533 100.379 299.835 100.379 296.32 96.864L298.441 94.7427C300.785 97.0856 304.583 97.0856 306.926 94.7425L302.684 90.5L302.684 90.5L309.048 96.864ZM275.106 96.864L275.106 96.864L275.106 96.8639C272.763 94.5209 268.964 94.5208 266.621 96.8638L264.5 94.7425C268.015 91.2278 273.713 91.2278 277.228 94.7424L281.47 90.5L281.47 90.5L277.228 94.7425L277.228 94.7425L277.228 94.7425C279.571 97.0856 283.37 97.0856 285.713 94.7427L287.834 96.864C284.32 100.379 278.621 100.379 275.106 96.864L270.864 101.106L270.864 101.106L275.106 96.864ZM298.441 94.7425C294.926 91.2278 289.228 91.2278 285.713 94.7425L292.077 101.106L292.077 101.106L287.835 96.864C290.178 94.5209 293.977 94.5208 296.32 96.8638L298.441 94.7425Z" fill="#E8FEFB"/>
<path fill-rule="evenodd" clip-rule="evenodd" d="M275.106 107.364L275.106 107.364L275.106 107.364C272.763 105.021 268.964 105.021 266.621 107.364L264.5 105.243C268.015 101.728 273.713 101.728 277.228 105.242L281.47 101L281.47 101L277.228 105.242L277.228 105.243L277.228 105.243C279.571 107.586 283.37 107.586 285.713 105.243L287.834 107.364C284.32 110.879 278.621 110.879 275.106 107.364L270.864 111.606L270.864 111.606L275.106 107.364ZM296.32 107.364L298.441 105.243C300.785 107.586 304.583 107.586 306.926 105.243L302.684 101L302.684 101L309.048 107.364C305.533 110.879 299.835 110.879 296.32 107.364ZM298.441 105.243C294.926 101.728 289.228 101.728 285.713 105.243L292.077 111.606L292.077 111.606L287.835 107.364C290.178 105.021 293.977 105.021 296.32 107.364L298.441 105.243Z" fill="#E8FEFB"/>
<rect x="175" y="71" width="50" height="50" fill="#FED766"/>
<mask id="mask0" mask-type="alpha" maskUnits="userSpaceOnUse" x="175" y="71" width="50" height="50">
<rect x="175" y="71" width="50" height="50" fill="#C4C4C4"/>
</mask>
<g mask="url(#mask0)">
<rect x="141" y="101.211" width="100" height="5" transform="rotate(-45 141 101.211)" fill="#81D2C7"/>
<rect x="148.071" y="108.282" width="100" height="5" transform="rotate(-45 148.071 108.282)" fill="#81D2C7"/>
<rect x="155.142" y="115.353" width="100" height="5" transform="rotate(-45 155.142 115.353)" fill="#81D2C7"/>
<rect x="162.213" y="122.424" width="100" height="5" transform="rotate(-45 162.213 122.424)" fill="#81D2C7"/>
<rect x="169.284" y="129.495" width="100" height="5" transform="rotate(-45 169.284 129.495)" fill="#81D2C7"/>
<rect x="176.355" y="136.566" width="100" height="5" transform="rotate(-45 176.355 136.566)" fill="#81D2C7"/>
<rect x="183.426" y="143.637" width="100" height="5" transform="rotate(-45 183.426 143.637)" fill="#81D2C7"/>
<rect x="190.498" y="150.708" width="100" height="5" transform="rotate(-45 190.498 150.708)" fill="#81D2C7"/>
</g>
<rect x="89" y="71" width="50" height="50" fill="url(#paint1_radial)"/>
<path d="M97.3333 71L89 80.0909V83.5L97.3333 74.4091L105.667 83.5L114 74.4091L122.333 83.5L130.667 74.4091L139 83.5V80.0909L130.667 71L122.333 80.0909L114 71L105.667 80.0909L97.3333 71Z" fill="#EFA00B" fill-opacity="0.1"/>
<path d="M97.3333 83.5L89 92.5909V96L97.3333 86.9091L105.667 96L114 86.9091L122.333 96L130.667 86.9091L139 96V92.5909L130.667 83.5L122.333 92.5909L114 83.5L105.667 92.5909L97.3333 83.5Z" fill="#EFA00B" fill-opacity="0.1"/>
<path d="M97.3333 96L89 105.091V108.5L97.3333 99.4091L105.667 108.5L114 99.4091L122.333 108.5L130.667 99.4091L139 108.5V105.091L130.667 96L122.333 105.091L114 96L105.667 105.091L97.3333 96Z" fill="#EFA00B" fill-opacity="0.1"/>
<path d="M97.3333 108.5L89 117.591V121L97.3333 111.909L105.667 121L114 111.909L122.333 121L130.667 111.909L139 121V117.591L130.667 108.5L122.333 117.591L114 108.5L105.667 117.591L97.3333 108.5Z" fill="#EFA00B" fill-opacity="0.1"/>
<defs>
<radialGradient id="paint0_radial" cx="0" cy="0" r="1" gradientUnits="userSpaceOnUse" gradientTransform="translate(287 71) rotate(90) scale(151.25)">
<stop stop-color="#EBFFFC"/>
<stop offset="1" stop-color="#81D2C7"/>
</radialGradient>
<radialGradient id="paint1_radial" cx="0" cy="0" r="1" gradientUnits="userSpaceOnUse" gradientTransform="translate(164.25 45.75) rotate(135) scale(106.42)">
<stop stop-color="#FED766"/>
<stop offset="1" stop-color="#FFFD98"/>
</radialGradient>
</defs>
</svg>
